arkscan/icons/letsexchange.svg

<svg viewBox="0 0 20 21" fill="none" xmlns="http://www.w3.org/2000/svg">
  <path
    d="M12.2965 3.04322C12.2851 3.14471 11.6152 8.20684 11.6025 8.27676C11.5899 8.34668 11.621 8.4659 11.7918 8.4659H14.694C14.9058 8.4659 14.858 8.65054 14.7571 8.78117C14.6561 8.91188 9.69851 16.9536 9.6467 17.0414C9.59489 17.1291 9.35953 17.1431 9.39434 16.9153C9.42914 16.6875 10.0775 11.7661 10.0884 11.6817C10.0992 11.5973 10.101 11.4295 9.89906 11.4295H6.99686C6.89591 11.4295 6.80237 11.3362 6.93379 11.1142C7.06528 10.8922 11.9458 3.06345 12.0442 2.91716C12.1425 2.77078 12.308 2.9418 12.2965 3.04322Z"
    fill="#C3F166" />
  <path
    d="M7.08413 17.5588C6.02403 17.4905 4.99016 17.1999 4.04964 16.706C3.10931 16.2123 2.28341 15.5262 1.62563 14.6923C0.967945 13.8587 0.493134 12.8959 0.232086 11.8666C-0.0289388 10.8374 -0.0703164 9.76477 0.110646 8.71853C0.291609 7.67228 0.690855 6.67587 1.2824 5.79414C1.87401 4.9121 2.64462 4.16443 3.54413 3.59973C4.44384 3.03492 5.4523 2.66568 6.504 2.51599C7.55571 2.36631 8.62714 2.43954 9.6487 2.73092C9.31209 3.24674 8.89894 3.90808 8.67311 4.2758C7.88196 4.12595 7.06837 4.14132 6.28344 4.32096C5.49852 4.5006 4.75923 4.84062 4.11201 5.31966C3.46498 5.79864 2.92409 6.40634 2.52335 7.10454C2.12274 7.80259 1.87099 8.57602 1.78394 9.37613C1.69688 10.1762 1.77641 10.9857 2.01752 11.7536C2.25874 12.5215 2.65632 13.2312 3.18524 13.838C3.71426 14.445 4.36315 14.936 5.09111 15.28C5.81906 15.6241 6.61033 15.8138 7.41516 15.8373C7.3709 15.9995 7.13547 17.3065 7.08413 17.5587V17.5588Z"
    fill="url(#paint0_linear_3072_39331)" />
  <path
    d="M13.7358 4.95513C14.5064 4.76566 15.3108 4.76047 16.0838 4.93997C16.8568 5.11947 17.5766 5.47862 18.1849 5.98828C18.7929 6.49792 19.2722 7.14374 19.5838 7.87332C19.8953 8.6028 20.0303 9.3955 19.9779 10.187C19.9254 10.9785 19.6869 11.7464 19.2817 12.4284C18.8765 13.1105 18.3162 13.6874 17.6462 14.1124C16.9761 14.5374 16.2151 14.7985 15.4252 14.8745C14.6353 14.9505 13.8385 14.8393 13.0996 14.5499C13.3654 14.0997 13.7567 13.5871 13.8772 13.3336C14.7252 13.5984 15.6408 13.5433 16.4509 13.1786C17.2609 12.8139 17.9092 12.165 18.2732 11.3546C18.6367 10.5442 18.6902 9.62862 18.4236 8.7814C18.157 7.93418 17.5888 7.21423 16.8268 6.75805C16.3218 6.4555 15.7508 6.28024 15.163 6.24736C14.5752 6.21448 13.9883 6.32497 13.4527 6.56931C13.5413 5.94057 13.6883 5.19214 13.7358 4.95513Z"
    fill="url(#paint1_linear_3072_39331)" />
  <defs>
    <linearGradient id="paint0_linear_3072_39331" x1="6.8439" y1="2.04698" x2="6.81933" y2="17.5588"
      gradientUnits="userSpaceOnUse">
      <stop stop-color="#667180" />
      <stop offset="1" stop-color="white" stop-opacity="0" />
    </linearGradient>
    <linearGradient id="paint1_linear_3072_39331" x1="14.245" y1="14.8817" x2="14.3631" y2="4.80293"
      gradientUnits="userSpaceOnUse">
      <stop stop-color="#667180" />
      <stop offset="1" stop-color="white" stop-opacity="0" />
    </linearGradient>
  </defs>
</svg>

<svg viewBox="0 0 20 21" fill="none" xmlns="http://www.w3.org/2000/svg"><path d="M12.296 3.043c-.01.102-.68 5.164-.694 5.234-.012.07.019.189.19.189h2.902c.212 0 .164.185.063.315-.1.13-5.058 8.173-5.11 8.26-.052.088-.287.102-.253-.126.035-.227.684-5.149.694-5.233.011-.085.013-.252-.189-.252H6.997c-.101 0-.195-.094-.063-.316.131-.222 5.012-8.05 5.11-8.197.098-.146.264.025.252.126Z" fill="#C3F166"/><path d="M7.084 17.559a7.574 7.574 0 0 1-6.852-5.692A7.563 7.563 0 0 1 3.544 3.6a7.574 7.574 0 0 1 6.105-.87 75.84 75.84 0 0 0-.976 1.546 5.84 5.84 0 0 0-6.15 2.829 5.83 5.83 0 0 0 4.892 8.732c-.044.162-.28 1.47-.33 1.722Z" fill="url(#a)"/><path d="M13.736 4.955a5.05 5.05 0 0 1 5.848 2.918 5.043 5.043 0 0 1-4.159 7.001 5.05 5.05 0 0 1-2.325-.324c.265-.45.657-.963.777-1.216a3.632 3.632 0 0 0 4.547-4.553 3.627 3.627 0 0 0-3.261-2.534 3.632 3.632 0 0 0-1.71.322c.088-.628.235-1.377.283-1.614Z" fill="url(#b)"/><defs><linearGradient id="a" x1="6.844" y1="2.047" x2="6.819" y2="17.559" gradientUnits="userSpaceOnUse"><stop stop-color="#667180"/><stop offset="1" stop-color="#fff" stop-opacity="0"/></linearGradient><linearGradient id="b" x1="14.245" y1="14.882" x2="14.363" y2="4.803" gradientUnits="userSpaceOnUse"><stop stop-color="#667180"/><stop offset="1" stop-color="#fff" stop-opacity="0"/></linearGradient></defs></svg>
